SVG_Azure_Grouped/Application/Application Service Environment.svg

<?xml version="1.0" encoding="UTF-8" standalone="no"?>
<!-- Generated by Microsoft Visio, SVG Export Application Service Environment.svg Page-1 -->

<svg
   xmlns:dc="http://purl.org/dc/elements/1.1/"
   xmlns:cc="http://creativecommons.org/ns#"
   xmlns:rdf="http://www.w3.org/1999/02/22-rdf-syntax-ns#"
   xmlns:svg="http://www.w3.org/2000/svg"
   xmlns="http://www.w3.org/2000/svg"
   xmlns:sodipodi="http://sodipodi.sourceforge.net/DTD/sodipodi-0.dtd"
   xmlns:inkscape="http://www.inkscape.org/namespaces/inkscape"
   width="0.78739709in"
   height="0.78739709in"
   viewBox="0 0 56.692498 56.692901"
   xml:space="preserve"
   class="st4"
   version="1.1"
   id="svg35"
   sodipodi:docname="Application Service Environment.svg"
   style="font-size:12px;overflow:visible;color-interpolation-filters:sRGB;fill:none;fill-rule:evenodd;stroke-linecap:square;stroke-miterlimit:3"
   inkscape:version="0.92.5 (2060ec1f9f, 2020-04-08)"><metadata
   id="metadata39"><rdf:RDF><cc:Work
       rdf:about=""><dc:format>image/svg+xml</dc:format><dc:type
         rdf:resource="http://purl.org/dc/dcmitype/StillImage" /></cc:Work></rdf:RDF></metadata><sodipodi:namedview
   pagecolor="#ffffff"
   bordercolor="#666666"
   borderopacity="1"
   objecttolerance="10"
   gridtolerance="10"
   guidetolerance="10"
   inkscape:pageopacity="0"
   inkscape:pageshadow="2"
   inkscape:window-width="640"
   inkscape:window-height="480"
   id="namedview37"
   showgrid="false"
   inkscape:zoom="1.4193119"
   inkscape:cx="37.795128"
   inkscape:cy="37.78433"
   inkscape:window-x="0"
   inkscape:window-y="0"
   inkscape:window-maximized="0"
   inkscape:current-layer="svg35" />
	<style
   type="text/css"
   id="style2">
	<![CDATA[
		.st1 {fill:#949494;stroke:none;stroke-linecap:butt;stroke-width:34}
		.st2 {fill:url(#grad0-8);stroke:none;stroke-linecap:butt;stroke-width:34}
		.st3 {fill:none;stroke:none;stroke-linecap:butt;stroke-width:34}
		.st4 {fill:none;fill-rule:evenodd;font-size:12px;overflow:visible;stroke-linecap:square;stroke-miterlimit:3}
	]]>
	</style>

	<defs
   id="Patterns_And_Gradients">
		<linearGradient
   id="grad0-8"
   x1="0"
   y1="116.55756"
   x2="30.306997"
   y2="116.55756"
   gradientTransform="scale(1.1776158,0.84917336)"
   gradientUnits="userSpaceOnUse">
			<stop
   offset="0.18"
   stop-color="#5ea0ef"
   stop-opacity="1"
   id="stop4" />
			<stop
   offset="1"
   stop-color="#0078d4"
   stop-opacity="1"
   id="stop6" />
		</linearGradient>
	</defs>
	<g
   id="g33"
   transform="translate(-34.000441,-34.000001)">
		<title
   id="title10">Page-1</title>
		<g
   id="group14430-1"
   transform="translate(34,-34.0157)">
			<title
   id="title12">Application Service Environment.14430</title>
			<g
   id="group14431-2">
				<title
   id="title14">Icon-web-47</title>
				<g
   id="shape14432-3"
   transform="translate(3.14961,-2.89764)">
					<title
   id="title16">Sheet.14432</title>
					<path
   d="M 23.84,98.28 H 0 V 77.78 A 3.46457,3.46457 0 0 1 3.43,74.31 H 23.84 Z M 2.96,95.32 H 20.88 V 77.21 H 3.43 a 0.472441,0.472441 -180 0 0 -0.472441,0.472441 z m 47.43,2.96 H 26.55 V 74.31 h 20.41 a 3.46457,3.46457 0 0 1 3.43,3.47 z M 29.51,95.32 H 47.43 V 77.78 A 0.472441,0.472441 -180 0 0 46.957559,77.213071 L 29.51,77.21 Z m -5.67,29.39 H 3.43 A 3.43307,3.43307 0 0 1 0,121.31 V 100.77 H 23.84 Z M 2.96,103.73 v 17.58 a 0.472441,0.472441 -180 0 0 0.472441,0.47244 L 20.88,121.78 v -18.05 z m 44,20.98 H 26.55 v -23.94 h 23.84 v 20.54 a 3.43307,3.43307 0 0 1 -3.43,3.4 z m -17.45,-2.96 h 17.45 a 0.472441,0.472441 -180 0 0 0.472441,-0.47244 L 47.43,103.73 H 29.51 Z"
   class="st1"
   id="path18"
   inkscape:connector-curvature="0"
   style="fill:#949494;stroke:none;stroke-width:34;stroke-linecap:butt" />
				</g>
				<g
   id="shape14433-5"
   transform="translate(10.5197,-15.2126)">
					<title
   id="title21">Sheet.14433</title>
					<path
   d="M 35.69,116.68 A 8.15748,8.15748 -180 0 0 28.72,108.8 10.2047,10.2047 -180 0 0 18.3,98.98 10.4567,10.4567 -180 0 0 8.38,105.81 9.70079,9.70079 -180 0 0 0,115.26 a 9.79528,9.79528 -180 0 0 10.05,9.45 h 17.67 a 8.22047,8.22047 -180 0 0 7.97,-8.03 z"
   class="st2"
   id="path23"
   inkscape:connector-curvature="0"
   style="fill:url(#grad0-8);stroke:none;stroke-width:34;stroke-linecap:butt" />
				</g>
				<g
   id="shape14434-9">
					<title
   id="title26">Sheet.14434</title>
					<rect
   x="0"
   y="68.015701"
   width="56.692902"
   height="56.692902"
   class="st3"
   id="rect28"
   style="fill:none;stroke:none;stroke-width:34;stroke-linecap:butt" />
				</g>
			</g>
		</g>
	</g>
</svg>

<?xml version="1.0" encoding="UTF-8" standalone="no"?>
<!DOCTYPE svg PUBLIC "-//W3C//DTD SVG 1.1//EN" "http://www.w3.org/Graphics/SVG/1.1/DTD/svg11.dtd">
<!-- Generated by Microsoft Visio, SVG Export Application Service Environment.svg Page-1 -->
<svg xmlns="http://www.w3.org/2000/svg" xmlns:xlink="http://www.w3.org/1999/xlink" xmlns:ev="http://www.w3.org/2001/xml-events"
		width="1.73185in" height="1.73206in" viewBox="0 0 124.693 124.709" xml:space="preserve" color-interpolation-filters="sRGB"
		class="st4">
	<style type="text/css">
	<![CDATA[
		.st1 {fill:#949494;stroke:none;stroke-linecap:butt;stroke-width:34}
		.st2 {fill:url(#grad0-8);stroke:none;stroke-linecap:butt;stroke-width:34}
		.st3 {fill:none;stroke:none;stroke-linecap:butt;stroke-width:34}
		.st4 {fill:none;fill-rule:evenodd;font-size:12px;overflow:visible;stroke-linecap:square;stroke-miterlimit:3}
	]]>
	</style>

	<defs id="Patterns_And_Gradients">
		<linearGradient id="grad0-8" x1="0" y1="0" x2="1" y2="0" gradientTransform="rotate(90 0.5 0.5)">
			<stop offset="0.18" stop-color="#5ea0ef" stop-opacity="1"/>
			<stop offset="1" stop-color="#0078d4" stop-opacity="1"/>
		</linearGradient>
	</defs>
	<g>
		<title>Page-1</title>
		<g id="group14083-1" transform="translate(34,-34.0157)">
			<title>Application Service Environment.14083</title>
			<g id="group14084-2">
				<title>Icon-web-47</title>
				<g id="shape14085-3" transform="translate(3.14961,-2.89764)">
					<title>Sheet.14085</title>
					<path d="M23.84 98.28 L0 98.28 L0 77.78 A3.46457 3.46457 0 0 1 3.43 74.31 L23.84 74.31 L23.84 98.28 ZM2.96 95.32
								 L20.88 95.32 L20.88 77.21 L3.43 77.21 a0.472441 0.472441 -180 0 0 -0.472441 0.472441 L2.96 95.32
								 ZM50.39 98.28 L26.55 98.28 L26.55 74.31 L46.96 74.31 A3.46457 3.46457 0 0 1 50.39 77.78 L50.39 98.28
								 ZM29.51 95.32 L47.43 95.32 L47.43 77.78 a0.472441 0.472441 -180 0 0 -0.472441 -0.566929 L29.51 77.21
								 L29.51 95.32 ZM23.84 124.71 L3.43 124.71 A3.43307 3.43307 0 0 1 0 121.31 L0 100.77 L23.84 100.77
								 L23.84 124.71 ZM2.96 103.73 L2.96 121.31 a0.472441 0.472441 -180 0 0 0.472441 0.472441 L20.88 121.78
								 L20.88 103.73 L2.96 103.73 ZM46.96 124.71 L26.55 124.71 L26.55 100.77 L50.39 100.77 L50.39 121.31
								 A3.43307 3.43307 0 0 1 46.96 124.71 ZM29.51 121.75 L46.96 121.75 a0.472441 0.472441 -180 0 0 0.472441
								 -0.472441 L47.43 103.73 L29.51 103.73 L29.51 121.75 Z" class="st1"/>
				</g>
				<g id="shape14086-5" transform="translate(10.5197,-15.2126)">
					<title>Sheet.14086</title>
					<path d="M35.69 116.68 A8.15748 8.15748 -180 0 0 28.72 108.8 A10.2047 10.2047 -180 0 0 18.3 98.98 A10.4567 10.4567
								 -180 0 0 8.38 105.81 A9.70079 9.70079 -180 0 0 0 115.26 A9.79528 9.79528 -180 0 0 10.05 124.71 L27.72
								 124.71 A8.22047 8.22047 -180 0 0 35.69 116.68 Z" class="st2"/>
				</g>
				<g id="shape14087-9">
					<title>Sheet.14087</title>
					<rect x="0" y="68.0157" width="56.6929" height="56.6929" class="st3"/>
				</g>
			</g>
		</g>
	</g>
</svg>
